30c3/content/img/fem_logo.svg

<?xml version="1.0" encoding="UTF-8" standalone="no"?>
<svg
   xmlns:dc="http://purl.org/dc/elements/1.1/"
   xmlns:cc="http://creativecommons.org/ns#"
   xmlns:rdf="http://www.w3.org/1999/02/22-rdf-syntax-ns#"
   xmlns:svg="http://www.w3.org/2000/svg"
   xmlns="http://www.w3.org/2000/svg"
   xmlns:sodipodi="http://sodipodi.sourceforge.net/DTD/sodipodi-0.dtd"
   xmlns:inkscape="http://www.inkscape.org/namespaces/inkscape"
   id="svg2"
   sodipodi:version="0.32"
   inkscape:version="0.48.4 r9939"
   width="541.60968"
   height="110.144"
   sodipodi:docname="fem_logo.svg"
   inkscape:output_extension="org.inkscape.output.svg.inkscape"
   version="1.0">
  <metadata
     id="metadata415">
    <rdf:RDF>
      <cc:Work
         rdf:about="">
        <dc:format>image/svg+xml</dc:format>
        <dc:type
           rdf:resource="http://purl.org/dc/dcmitype/StillImage" />
      </cc:Work>
    </rdf:RDF>
  </metadata>
  <defs
     id="defs413">
    <inkscape:perspective
       sodipodi:type="inkscape:persp3d"
       inkscape:vp_x="0 : 118.10759 : 1"
       inkscape:vp_y="0 : 1000 : 0"
       inkscape:vp_z="541.60968 : 118.10759 : 1"
       inkscape:persp3d-origin="270.80484 : 78.738393 : 1"
       id="perspective75" />
  </defs>
  <sodipodi:namedview
     inkscape:window-height="761"
     inkscape:window-width="1276"
     inkscape:pageshadow="2"
     inkscape:pageopacity="0.0"
     guidetolerance="10.0"
     gridtolerance="10.0"
     objecttolerance="10.0"
     borderopacity="1.0"
     bordercolor="#666666"
     pagecolor="#ffffff"
     id="base"
     inkscape:zoom="1.359417"
     inkscape:cx="188.45073"
     inkscape:cy="-14.673498"
     inkscape:window-x="0"
     inkscape:window-y="37"
     inkscape:current-layer="g3883"
     showguides="true"
     inkscape:guide-bbox="true"
     showgrid="false"
     fit-margin-top="0"
     fit-margin-left="0"
     fit-margin-right="0"
     fit-margin-bottom="0"
     inkscape:window-maximized="0" />
  <g
     id="g5826"
     style="fill:#000000;fill-opacity:1"
     transform="translate(-27.748989,-256.78482)">
    <g
       transform="translate(-173.80383,62.443036)"
       id="g5811"
       style="fill:#000000;fill-opacity:1" />
    <g
       id="g16009">
      <g
         style="fill:#00267f;fill-opacity:1"
         transform="matrix(1.124934,0,0,1.124934,-96.642185,232.44772)"
         id="layer1">
        <g
           transform="translate(53.91242,-560.50423)"
           style="fill:#00267f;fill-opacity:1;stroke:none"
           id="g3883">
          <path
             d="m 539.28125,502.375 c -9.08107,2.39439 -16.82854,6.65682 -20.8125,12.8125 l 3.21875,-11.25 -20.4375,0 -17.1875,62.71875 20,0 c 5.13609,-17.79682 13.06123,-38.17639 30.03125,-45.5 l -12.40625,45.5 17.59375,0 c 5.58498,-19.07741 14.82968,-40.05859 30,-45.5 l -12.8125,45.5 17.59375,0 L 591.25,504.75 574.46875,502.375 c -8.85339,2.29392 -16.49107,6.32589 -20.8125,12.8125 l 2.8125,-10.4375 -17.1875,-2.375 z"
             transform="translate(-53.126931,79.76348)"
             style="fill:#00099a;fill-opacity:0.6901961;stroke:none"
             id="path3885"
             inkscape:connector-curvature="0" />
          <path
             d="m 439.25,503.9375 -17.1875,62.71875 51.1875,0 4.03125,-14.75 -29.59375,0 2.375,-9.5 30.03125,0 3.96875,-14.84375 -29.59375,0 2.78125,-9.21875 29.25,0.4375 3.96875,-14.84375 -51.21875,0 z"
             transform="translate(-53.126931,79.76348)"
             style="fill:#00099a;fill-opacity:0.6901961;stroke:none"
             id="path3887"
             inkscape:connector-curvature="0" />
          <path
             d="m 378.84375,503.9375 -17.5625,62.71875 21.96875,0 6.84375,-24.25 28.375,0 4.03125,-14.84375 -28.4375,0 2.4375,-9.21875 28.78125,0 3.96875,-14.40625 -50.40625,0 z"
             transform="translate(-53.126931,79.76348)"
             style="fill:#00099a;fill-opacity:0.6901961;stroke:none"
             id="path3889"
             inkscape:connector-curvature="0" />
          <path
             d="m 115.704,653.77 0,-0.216 0.144,-0.072 0,0.504 -0.144,-0.216 0,0 z"
             style="fill:#00099a;fill-opacity:0.6901961;stroke:none"
             id="path3891"
             inkscape:connector-curvature="0" />
          <path
             d="m 141.84375,384.5625 15.5625,26.78125 16.03125,-26.78125 -31.59375,0 z"
             transform="translate(-57.167541,253.50971)"
             style="fill:#00099a;fill-opacity:0.6901961;stroke:none"
             id="path3893"
             inkscape:connector-curvature="0" />
          <path
             d="m 115.848,653.986 31.608,26.064 7.2,-40.392 -38.808,13.824 0,0.504 0,0 z"
             style="fill:#00099a;fill-opacity:0.6901961;stroke:none"
             id="path3895"
             inkscape:connector-curvature="0" />
          <path
             d="m 213.48,678.466 -52.416,-18.792 42.768,-35.136 9.648,53.928 0,0 z"
             style="fill:#00099a;fill-opacity:0.6901961;stroke:none"
             id="path3899"
             inkscape:connector-curvature="0" />
          <path
             d="m 295.416,646.426 -74.376,0 37.224,-62.712 37.152,62.712 z"
             style="fill:#00099a;fill-opacity:0.6901961;stroke:none"
             id="path3901"
             inkscape:connector-curvature="0" />
          <path
             d="m 115.704,653.554 -0.216,0.072 0.216,0.144 0,-0.216 0,0 z"
             style="fill:#00099a;fill-opacity:0.6901961;stroke:none"
             id="path3905"
             inkscape:connector-curvature="0" />
          <path
             d="m 124.1875,366.21875 4.40625,22.3125 18,-14.6875 -22.40625,-7.625 z"
             transform="translate(-57.167541,253.50971)"
             style="fill:#00099a;fill-opacity:0.6901961;stroke:none"
             id="path3909"
             inkscape:connector-curvature="0" />
          <path
             d="m 56.664,618.922 3.168,-16.776 13.608,11.16 -16.776,5.616 z"
             style="fill:#00099a;fill-opacity:0.6901961;stroke:none"
             id="path3917"
             inkscape:connector-curvature="0" />
        </g>
      </g>
    </g>
  </g>
</svg>

<?xml version="1.0" encoding="UTF-8" standalone="no"?>
<!-- Created with Inkscape (http://www.inkscape.org/) -->
<svg
   xmlns:svg="http://www.w3.org/2000/svg"
   xmlns="http://www.w3.org/2000/svg"
   version="1.0"
   width="481.45908"
   height="97.911522"
   id="svg2">
  <defs
     id="defs4">
    <linearGradient
       id="linearGradient5907">
      <stop
         style="stop-color:#00377c;stop-opacity:1"
         offset="0"
         id="stop5909" />
      <stop
         style="stop-color:#00377c;stop-opacity:1"
         offset="1"
         id="stop5911" />
    </linearGradient>
  </defs>
  <g
     transform="translate(-110.57642,-21.63425)"
     id="layer1">
    <g
       transform="translate(53.91242,-560.50423)"
       style="opacity:1;fill:#00377c;fill-opacity:1;stroke:none"
       id="g3883">
      <path
         d="M 539.28125,502.375 C 530.20018,504.76939 522.45271,509.03182 518.46875,515.1875 L 521.6875,503.9375 L 501.25,503.9375 L 484.0625,566.65625 L 504.0625,566.65625 C 509.19859,548.85943 517.12373,528.47986 534.09375,521.15625 L 521.6875,566.65625 L 539.28125,566.65625 C 544.86623,547.57884 554.11093,526.59766 569.28125,521.15625 L 556.46875,566.65625 L 574.0625,566.65625 L 591.25,504.75 L 574.46875,502.375 C 565.61536,504.66892 557.97768,508.70089 553.65625,515.1875 L 556.46875,504.75 L 539.28125,502.375 z "
         transform="translate(-53.126931,79.76348)"
         style="fill:#00377c;fill-opacity:1;stroke:none"
         id="path3885" />
      <path
         d="M 439.25,503.9375 L 422.0625,566.65625 L 473.25,566.65625 L 477.28125,551.90625 L 447.6875,551.90625 L 450.0625,542.40625 L 480.09375,542.40625 L 484.0625,527.5625 L 454.46875,527.5625 L 457.25,518.34375 L 486.5,518.78125 L 490.46875,503.9375 L 439.25,503.9375 z "
         transform="translate(-53.126931,79.76348)"
         style="fill:#00377c;fill-opacity:1;stroke:none"
         id="path3887" />
      <path
         d="M 378.84375,503.9375 L 361.28125,566.65625 L 383.25,566.65625 L 390.09375,542.40625 L 418.46875,542.40625 L 422.5,527.5625 L 394.0625,527.5625 L 396.5,518.34375 L 425.28125,518.34375 L 429.25,503.9375 L 378.84375,503.9375 z "
         transform="translate(-53.126931,79.76348)"
         style="fill:#00377c;fill-opacity:1;stroke:none"
         id="path3889" />
      <path
         d="M 115.704,653.77 L 115.704,653.554 L 115.848,653.482 L 115.848,653.986 L 115.704,653.77 L 115.704,653.77 z "
         style="fill:#00377c;fill-opacity:1;stroke:none"
         id="path3891" />
      <path
         d="M 141.84375,384.5625 L 157.40625,411.34375 L 173.4375,384.5625 L 141.84375,384.5625 z "
         transform="translate(-57.167541,253.50971)"
         style="fill:#00377c;fill-opacity:1;stroke:none"
         id="path3893" />
      <path
         d="M 115.848,653.986 L 147.456,680.05 L 154.656,639.658 L 115.848,653.482 L 115.848,653.986 L 115.848,653.986 z "
         style="fill:#00377c;fill-opacity:1;stroke:none"
         id="path3895" />
      <path
         d="M 213.48,678.466 L 161.064,659.674 L 203.832,624.538 L 213.48,678.466 L 213.48,678.466 z "
         style="fill:#00377c;fill-opacity:1;stroke:none"
         id="path3899" />
      <path
         d="M 295.416,646.426 L 221.04,646.426 L 258.264,583.714 L 295.416,646.426 z "
         style="fill:#00377c;fill-opacity:1;stroke:none"
         id="path3901" />
      <path
         d="M 115.704,653.554 L 115.488,653.626 L 115.704,653.77 L 115.704,653.554 L 115.704,653.554 z "
         style="fill:#00377c;fill-opacity:1;stroke:none"
         id="path3905" />
      <path
         d="M 124.1875,366.21875 L 128.59375,388.53125 L 146.59375,373.84375 L 124.1875,366.21875 z "
         transform="translate(-57.167541,253.50971)"
         style="fill:#00377c;fill-opacity:1;stroke:none"
         id="path3909" />
      <path
         d="M 56.664,618.922 L 59.832,602.146 L 73.44,613.306 L 56.664,618.922 z "
         style="fill:#00377c;fill-opacity:1;stroke:none"
         id="path3917" />
    </g>
  </g>
</svg>
